src/assets/duotone/ReceiptSquare.svg

<svg width="24" height="24" viewBox="0 0 24 24"  xmlns="http://www.w3.org/2000/svg">
<path d="M8.90024 16.5299C9.38024 16.0099 10.1203 16.0499 10.5403 16.6199L11.1403 17.4199C11.6103 18.0499 12.3902 18.0499 12.8602 17.4199L13.4503 16.6299C13.8703 16.0699 14.6102 16.0299 15.0902 16.5399C16.1402 17.6599 16.9902 17.2899 16.9902 15.7199V9.08988C16.9902 6.71988 16.4302 6.12988 14.2102 6.12988H9.77023C7.55023 6.12988 6.99023 6.71988 6.99023 9.08988V15.7199C7.00023 17.2699 7.86024 17.6399 8.90024 16.5299Z" />
<path opacity="0.4" d="M16.1898 2H7.81976C4.17976 2 2.00977 4.17 2.00977 7.81V16.18C2.00977 19.82 4.17976 21.99 7.81976 21.99H16.1898C19.8298 21.99 21.9998 19.82 21.9998 16.18V7.81C21.9998 4.17 19.8298 2 16.1898 2Z" />
</svg>

<?xml version="1.0" encoding="UTF-8"?>
<svg width="24" height="24" viewBox="0 0 24 24" xmlns="http://www.w3.org/2000/svg">
 <path d="m8.9002 16.53c0.48-0.52 1.2201-0.48 1.6401 0.09l0.6 0.8c0.47 0.63 1.2499 0.63 1.7199 0l0.5901-0.79c0.42-0.56 1.1599-0.6 1.6399-0.09 1.05 1.12 1.9 0.75 1.9-0.82v-6.63c0-2.37-0.56-2.96-2.78-2.96h-4.44c-2.22 0-2.78 0.59-2.78 2.96v6.63c0.01 1.55 0.87001 1.92 1.91 0.81z"/>
 <path d="m16.19 2h-8.37c-3.64 0-5.81 2.17-5.81 5.81v8.37c0 3.64 2.17 5.81 5.81 5.81h8.37c3.64 0 5.81-2.17 5.81-5.81v-8.37c0-3.64-2.17-5.81-5.81-5.81z" opacity=".4"/>
</svg>
